src/images/Icons/Light/Arrow.svg

<svg fill="none" height="32" viewBox="0 0 33 32" width="33" xmlns="http://www.w3.org/2000/svg"><g fill="#2b3652"><path d="m21.5634 14.4129 4.9323-.4362c1.1069 0 2.0043.9062 2.0043 2.0239s-.8974 2.0238-2.0043 2.0238l-4.9323-.4362c-.8684 0-1.5724-.7108-1.5724-1.5876 0-.8783.704-1.5877 1.5724-1.5877z" opacity=".4"/><path d="m5.00078 14.4931c.07709-.0778.36508-.4068.63563-.68 1.57816-1.711 5.69879-4.5089 7.85449-5.36515.3272-.13659 1.1549-.42739 1.5985-.44795.4233 0 .8276.0984 1.2131.29227.4814.27171.8654.70057 1.0778 1.2058.1352.34955.3476 1.39963.3476 1.41873.2109 1.1471.3258 3.0123.3258 5.0744 0 1.9622-.1149 3.751-.288 4.9172-.0189.0206-.2313 1.3233-.4625 1.7698-.4233.8166-1.2509 1.3218-2.1367 1.3218h-.0771c-.5775-.0191-1.7905-.5258-1.7905-.5434-2.0407-.8563-6.06397-3.519-7.6814-5.2888 0 0-.45672-.4553-.65454-.7388-.30836-.4083-.46254-.9135-.46254-1.4187 0-.564.17309-1.0883.50036-1.5172z"/></g></svg>

<svg width="33" height="32" viewBox="0 0 33 32" fill="none" xmlns="http://www.w3.org/2000/svg">
<path opacity="0.4" d="M21.5634 14.4129L26.4957 13.9767C27.6026 13.9767 28.5 14.8829 28.5 16.0006C28.5 17.1183 27.6026 18.0244 26.4957 18.0244L21.5634 17.5882C20.695 17.5882 19.991 16.8774 19.991 16.0006C19.991 15.1223 20.695 14.4129 21.5634 14.4129Z" fill="#2B3652"/>
<path d="M5.00078 14.4931C5.07787 14.4153 5.36586 14.0863 5.63641 13.8131C7.21457 12.1021 11.3352 9.3042 13.4909 8.44795C13.8181 8.31136 14.6458 8.02056 15.0894 8C15.5127 8 15.917 8.0984 16.3025 8.29227C16.7839 8.56398 17.1679 8.99284 17.3803 9.49807C17.5155 9.84762 17.7279 10.8977 17.7279 10.9168C17.9388 12.0639 18.0537 13.9291 18.0537 15.9912C18.0537 17.9534 17.9388 19.7422 17.7657 20.9084C17.7468 20.929 17.5344 22.2317 17.3032 22.6782C16.8799 23.4948 16.0523 24 15.1665 24H15.0894C14.5119 23.9809 13.2989 23.4742 13.2989 23.4566C11.2582 22.6003 7.23493 19.9376 5.6175 18.1678C5.6175 18.1678 5.16078 17.7125 4.96296 17.429C4.6546 17.0207 4.50042 16.5155 4.50042 16.0103C4.50042 15.4463 4.67351 14.922 5.00078 14.4931Z" fill="#2B3652"/>
</svg>
